X:1
T:Title
%%score { ( 1 3 ) | ( 2 4 ) }
L:1/8
Q:1/4=90
M:6/8
K:Bb
V:1 treble nm="Grand Piano"
V:3 treble 
V:2 bass 
V:4 bass 
V:1
 [DF][DF][DF] [Fd][Fc][FB] | cBG .[DF]3 | FAA A3 | [DF][DB][EB] .[DB]3 | %4
w: L.~O.~Emerson * * * * *||||
 [DF][DF][DF] [Fd][Fc][FB] | cBG .[DF]3 | F=EF [EA][EA][EG] | F6 | .[DF]6 | [Ec]6 | .[EF]6 | %11
w: |||||||
 B-[F,B-][EB-] [DB]3 | [Fd][Fd][Fd] [Fd][Fc][FB] | [Gc][Gc][Gd] .[Ge]3 | AAA ABc | %15
w: ||||
 B2- [EB-] [DB]3 |] %16
w: |
V:2
 [B,,B,][B,,B,][B,,B,] [B,,B,][C,A,][D,B,] | [E,G,E][E,G,E][E,B,E] .[B,,B,]3 | %2
 [F,A,E][F,CE][F,CE] [F,CE]3 | [B,,B,][B,,F,][B,,G,] .[B,,F,]3 | %4
 [B,,B,][B,,B,][B,,B,] [B,,B,][C,A,][D,B,] | [E,G,E][E,G,E][E,B,E] .[B,,B,]3 | %6
 [C,A,C][C,G,C][C,A,C] [C,C][C,C][C,B,] | F,2- [F,-B,] [F,C]3 | B,,B,,B,, B,,[B,,B,][B,,B,] | %9
 [F,A,]F,F, .F,3 | F,F,F, F,[F,CE][F,A,E] | [B,,A,]B,,[B,,G,] .[B,,F,]3 | %12
 [B,,B,][B,,B,][B,,B,] [B,,B,][C,A,][D,B,] | [E,B,][E,B,][D,=B,] .[C,C]3 | %14
 [F,CE][F,CE][F,CE] [F,CE][F,B,D][F,A,E] | [B,,B,]2 [B,,G,] .[B,,F,]3 |] %16
V:3
 x6 | x6 | x6 | x6 | x6 | x6 | x6 | z CD .E3 | B,B,B, B,[DB][Fd] | z A,A, .A,3 | A,A,A, A,Ac | %11
 .D3 z3 | x6 | x6 | x6 | .D3 z3 |] %16
V:4
 x6 | x6 | x6 | x6 | x6 | x6 | x6 | .A,3 z3 | x6 | x6 | x6 | x6 | x6 | x6 | x6 | x6 |] %16

